!!!OTL: Ritter und Magd Es spielt' ein Graf mit seiner Magd
!!!ARE: Europa, Osteuropa, UdSSR, Rossiya, Kreis Leningrad, Kamenka
!!!YOR: 3, S. 15
!!    1926 aufgezeichnet
!!!SCT: Q0055G
!!!YEM: Copyright 1995, estate of Helmut Schaffrath.
**kern
*ICvox
*Ivox
*M2/4
*k[]
*C:
{8G
=1
8c
8G
8E
8G
=2
8c
8c
8c}
{8e
=3
8d
8c
8B
8A
=4
8A
8G
8G}
{8c
=5
8F
8F
8c
8F
=6
8E
8G
8c}
{8c
=7
8B
8d
8f
8B
=8
8d
8c
8c}
==
!!!AGN: Ballade, Betrug, Schwangerschaft, Tod, Selbstmord, Herr und Magd
!! Grundton in der eingestrichenen Oktave.
!!!ONB: ESAC (Essen Associative Code) Database: BALLADE
!!!AMT: simple duple
!!!AIN: vox
!!!EED: Helmut Schaffrath
!!!EEV: 1.0
*-
